packages/astro-components-stencil/src/icons/tv-off.svg

<svg width="24" height="24" viewBox="0 0 24 24" fill="none" xmlns="http://www.w3.org/2000/svg">
<path fill-rule="evenodd" clip-rule="evenodd" d="M21 8.0002V17.8802L22.85 19.7302C22.95 19.5102 23 19.2602 23 19.0002V7.0002C23 5.8902 22.1 5.0002 21 5.0002H13.41L16.35 2.0602C16.55 1.8602 16.55 1.5502 16.35 1.3502C16.15 1.1502 15.84 1.1502 15.64 1.3502L12 4.9902L8.36 1.3502C8.16 1.1502 7.85 1.1502 7.65 1.3502C7.45 1.5502 7.45 1.8602 7.65 2.0602L10.59 5.0002H8.12L10.12 7.0002H20C20.55 7.0002 21 7.4502 21 8.0002ZM3.12 2.8302C2.73 2.4402 2.1 2.4402 1.71 2.8302C1.32 3.2202 1.32 3.8502 1.71 4.2402L2.53 5.0602C1.65 5.2802 1 6.0602 1 7.0002V19.0002C1 20.1002 1.9 21.0002 3 21.0002H18.46L19.75 22.2902C20.14 22.6802 20.77 22.6802 21.16 22.2902C21.52 21.9302 21.53 21.3702 21.23 20.9802H21.26L3.12 2.8302ZM3 8.0002V18.0002C3 18.5502 3.45 19.0002 4 19.0002H16.46L4.46 7.0002H4C3.45 7.0002 3 7.4502 3 8.0002Z" fill="black"/>
</svg>

<svg xmlns="http://www.w3.org/2000/svg" viewBox="0 0 24 24"><g xmlns="http://www.w3.org/2000/svg" id="tv-off" fill-rule="nonzero">
            <path d="M21 8v9.88l1.85 1.85c.1-.22.15-.47.15-.73V7a2 2 0 00-2-2h-7.59l2.94-2.94c.2-.2.2-.51 0-.71-.2-.2-.51-.2-.71 0L12 4.99 8.36 1.35c-.2-.2-.51-.2-.71 0-.2.2-.2.51 0 .71L10.59 5H8.12l2 2H20c.55 0 1 .45 1 1zM3.12 2.83a.996.996 0 10-1.41 1.41l.82.82C1.65 5.28 1 6.06 1 7v12c0 1.1.9 2 2 2h15.46l1.29 1.29c.39.39 1.02.39 1.41 0 .36-.36.37-.92.07-1.31h.03L3.12 2.83zM3 18V8c0-.55.45-1 1-1h.46l12 12H4c-.55 0-1-.45-1-1z"/>
        </g></svg>
